X: 14297
T: Gale Warning, The
R: reel
M: 4/4
K: Amixolydian
|:.eAAB AAcA|ceAc e2 cd|eAAB AAec|dBGB d2 cd|
eAAB AAec|ceAc e2 ed|cedB GABG|A2 AG A2 cd:|
|:ecaf eBcd|ecaf e2 cd|ecaf eBcd|dBGB d2 cd|
ecaf eBcd|ecaf e2 ed|cedB GABG|1 A2 AG A2 cd:|2 A2 AG A2 cB||
|:A2ce A2 ce|A2 ce fecB|A2 ce A2 ce|d2 ed BAGB|
A2 ce A2ce|A2 ce fece|cedB GABG|1 A2 AG A2 cB:|2 A2 AG A2 ed||
|:ceed dccA|ceed dccA|dffe eddB|dffe eddB|
eggf feed|eggf feed|cedB GABG|1 A2 AG A2 ed:|2 A2 AG A2 cd||

